X:1
T:Title
%%score 1 { 2 | 3 }
L:1/8
Q:1/4=110
M:4/4
K:F
V:1 treble nm="Grand Piano, Staff 1"
V:2 bass nm="Choir Pad, Morgenlied, 87.87.87 D"
V:3 bass 
V:1
 B3 B B2 F2 | [FB]2 [_Ec]2 [Dd]2 [FB]2 | [_EG]3 [EG] F2 [FB]2 | [F_e]2 [Fd]2 [Fc]4 | c3 c c2 G2 | %5
w: By~Frederick~Charles~Maker,~1881 * * *|||||
 [Gc]2 [Fd]2 [_E_e]2 [Gc]2 | [FA]3 [FA] [FB]2 [Fd]2 | [Fd]2 [_Ec]2 [DB]4 | [FA]3 [EG] F2 [Fd]2 | %9
w: ||||
 [Ec]2 [EG]2 [FA]2 F2 | [FA]3 [EB] [Fc]2 F2 | [GB]2 [FA]2 [EG]4 | [FA]3 [EG] F2 [Fd]2 | %13
w: ||||
 [Ec]2 G2 [FA]2 F2 | [FA]3 [EA] [Fc]2 [FB]2 | [FA]2 [EG]2 F4 | B3 B B2 F2 | %17
w: ||||
 [FB]2 [_Ec]2 [Dd]2 [FB]2 | [_EG]3 [EG] F2 [FB]2 | [F_e]2 [Fd]2 [Fc]4 | c3 c c2 G2 | %21
w: ||||
 [Gc]2 [Fd]2 [_E_e]2 [Gc]2 | [FA]3 [FA] [FB]2 [Fd]2 | [Bf]2 [Af]2 B4- | B4 z4 |] %25
w: ||||
V:2
 B,3 B, B,2 F,2 | B,2 A,2 B,2 B,2 | B,3 B, B,2 B,2 | A,2 B,2 A,4 | C3 C C2 G,2 | C2 =B,2 C2 C2 | %6
 C3 C[K:bass] B,2 B,2 | B,2 A,2 B,4 | C3 B, A,2 B,2 | G,2[K:treble] C2 C2 A,2 | C3 C C2 A,2 | %11
 C2 C2 C4 | C3[K:bass] B, A,2 B,A, | G,2[K:treble] C2 C2 A,2 | C3 B, A,2 D2 | C2[K:bass] B,2 A,4 | %16
 B,3 B, B,2 F,2 | B,2 A,2 B,2 B,2 | B,3 B, B,2 B,2 | A,2 B,2 A,4 | C3 C C2 G,2 | C2 =B,2 C2 C2 | %22
 C3 C B,2 B,2 | D2 _E2 D4- | D4 z4 |] %25
V:3
 z8 | D,2 C,2 B,,2 D,2 | _E,3 E, D,2 D,2 | C,2 B,,2 F,4 | z8 | _E,2 D,2 C,2 E,2 | %6
 F,3 _E, D,2 B,,2 | F,2 F,2 B,,4 | F,3 F, F,2 B,,2 | C,2 C,2 F,2 F,2 | F,3 G, A,2 D,2 | %11
 E,2 F,2 C,4 | F,3 F, F,2 B,,2 | C,2 E,2 F,2 F,2 | F,3 G, z2 B,2 | z2 C,2 F,4 | z8 | %17
 D,2 C,2 B,,2 D,2 | _E,3 E, D,2 D,2 | C,2 B,,2 F,4 | z8 | _E,2 D,2 C,2 E,2 | F,3 _E, D,2 B,,2 | %23
 [F,,F,]2 [F,,F,]2 [B,,B,]4- | [B,,B,]4 z4 |] %25

